X:8965
T:La Louise
M:3/8
L:1/16
K:C
G2c2d2|f2e2d2|c2d2e2|c2dcBA|\
G2c2d2|f2e2d2|c2d2e2|d6:|
|:d2e2f2|g3ag2|f2dede|f2e2d2|\
c2dede|f2e2d2|1 c2dedc|B2A2G2:|2 c2dedB|c6||
